!!!OTL: Dreikoenigslied.
!!!ARE: Europa, Mitteleuropa, Deutschland
!!!SCT: A0535
!!!TXL: @@GMH
!!!YEM: Copyright 1995, estate of Helmut Schaffrath.
**kern	**text
*M3/2	*
*met(C|3)	*
*clefC4	*
*k[b-]	*
*G:dor	*
=1	=1
!LO:TX:a:t=dor.	!
!LO:N:vis=1	!
2ryy	.
!LO:N:vis=1	!
2ryy	.
!LO:N:vis=1	!
{2G/	1. Es
=2	=2
!LO:N:vis=0	!
1G/	führt
!LO:N:vis=1	!
2G/	drey
=3	=3
!LO:N:vis=0	!
1d\	Kö-
!LO:N:vis=1	!
2d\	-nig
=4	=4
!LO:N:vis=0	!
1c\	Got-
!LO:N:vis=1	!
2B-\	-tes
=5	=5
!LO:N:vis=0	!
1A\}	Hand,
!LO:N:vis=1	!
{2d\	mit
=6	=6
!LO:N:vis=0	!
1d\	ei-
!LO:N:vis=1	!
2e\	-nem
=7	=7
!LO:N:vis=0	!
1f\	Stern
!LO:N:vis=1	!
2d\	aus
=8	=8
!LO:TX:a:t=P:coloured notes:problem	!
!LO:N:vis=1	!
2c\	Mor-
!LO:TX:a:t=P:coloured notes:problem	!
!LO:N:vis=0	!
1A\	-gen-
=9	=9
!LO:N:vis=0	!
1G/}	-land,
!LO:N:vis=1	!
{2B-\	ʒum
=10	=10
!LO:N:vis=0	!
1d\	Chriſt-
!LO:N:vis=1	!
2d\	-kindt
=11	=11
!LO:N:vis=0	!
1c\	durch
!LO:N:vis=1	!
2d\	Je-
=12	=12
!LO:TX:a:t=P:coloured notes:problem	!
!LO:N:vis=1	!
2d\	-ru-
!LO:TX:a:t=P:coloured notes:problem	!
!LO:N:vis=0	!
1e\	-ſa-
=13	=13
!LO:N:vis=0.	!
1.f\}	-lem,
=14	=14
!LO:N:vis=1	!
{2f\	in
!LO:N:vis=1	!
2f\	ei-
!LO:N:vis=1	!
2f\	-nen
=15	=15
!LO:N:vis=0	!
1d\	Stall
!LO:N:vis=1	!
2f\	nach
=16	=16
!LO:TX:a:t=P:coloured notes:problem	!
!LO:N:vis=1	!
2d\	Bethle-
!LO:TX:a:t=P:coloured notes:problem	!
!LO:N:vis=0	!
1c\	.
=17	=17
!LO:N:vis=0	!
1B-\}	-hem.
!LO:N:vis=1	!
{2B-\	Gott
=18	=18
!LO:N:vis=0	!
1B-\	führ
!LO:N:vis=1	!
2B-\	vns
=19	=19
!LO:N:vis=0	!
1B-\	auch
!LO:N:vis=1	!
2A\	ʒu
=20	=20
!LO:N:vis=0	!
1G/	die-
!LO:N:vis=1	!
2G/	-ſem
=21	=21
!LO:N:vis=0	!
1A\}	Kind,
!LO:N:vis=1	!
{2A\	vnd
=22	=22
!LO:N:vis=0	!
1c\	mach
!LO:N:vis=1	!
2c\	aus
=23	=23
!LO:N:vis=0	!
1d\	vns
!LO:N:vis=1	!
2c\	ſein
=24	=24
!LO:TX:a:t=P:coloured notes:problem	!
!LO:N:vis=1	!
2B-\	Hof-
!LO:TX:a:t=P:coloured notes:problem	!
!LO:N:vis=0	!
1A\	-ge-
=25	=25
1.G/ll}	-ſind!
==	==
!!!GTL: Geistliche Volkslieder
!!!AGN: Romanze, Ballade, Lied, religioeses Lied
!! Coelner Gsgb. 1623.
!!!ONB: ESAC (Essen Associative Code) Database: ALTDEU
!!!AMT: simple triple
!!!AIN: vox
!!!EED: Helmut Schaffrath
!!!EEV: 1.0
!!!RDF**kern: l = terminal long
!!!AMD: Dorian
!!!URL-scan: https://rosdok.uni-rostock.de/mcrviewer/recordIdentifier/rosdok_ppn738218359/iview2/phys_0712.iview2?x=-2231.2783251231526&y=478.67783252941445&scale=0.2314709236031927&rotation=0&layout=singlePageLayout&logicalDiv=log_0007
!!!ENC: Anna Maria Matuszewska
!!!EEV: 2024/20/03
*-	*-
